!!!COM: Bach, Johann Sebastian
!!!OPR: Komm, Jesu, komm
!!!OTL: Aria
!!!OMV: 2
!!!SCT: BWV 229
!!!SCA: Thematisch-systematisches Verzeichnis der musikalischen Werke Johann Sebastian Bach: Bach-Werke-Verzeichnis (Schmieder)
!!!YOR: Bach Gesellschaft Edition xxxix
!!!EED: Edmund Correia, Jr.
!!!ENC: Edmund Correia, Jr.
!!!CDT: 1685/3//-1750/7/28/
!!!OCY: Deutschland
!!!YEC: Copyright (c) 1994, 2000 Center for Computer Assisted Research in the Humanities
!!!YEM: Rights to all derivative editions reserved.
!!!YEM: Refer to licensing agreement for further details.
!!!YEN: United States of America
**kern	**silbe	**kern	**silbe	**kern	**silbe	**kern	**silbe	**kern	**silbe	**kern	**silbe	**kern	**silbe	**kern	**silbe
*I:Soprano	*I:Soprano	*I:Alto	*I:Alto	*I:Tenore	*I:Tenore	*I:Basso	*I:Basso	*I:Soprano	*I:Soprano	*I:Alto	*I:Alto	*I:Tenore	*I:Tenore	*I:Basso	*I:Basso
*clefG2	*	*clefG2	*	*clefGv2	*	*clefF4	*	*clefG2	*	*clefG2	*	*clefGv2	*	*clefF4	*
*k[b-e-]	*	*k[b-e-]	*	*k[b-e-]	*	*k[b-e-]	*	*k[b-e-]	*	*k[b-e-]	*	*k[b-e-]	*	*k[b-e-]	*
*g:	*	*g:	*	*g:	*	*g:	*	*g:	*	*g:	*	*g:	*	*g:	*
*M3/4	*	*M3/4	*	*M3/4	*	*M3/4	*	*M3/4	*	*M3/4	*	*M3/4	*	*M3/4	*
! Andante	!	! Andante	!	! Andante	!	! Andante	!	! Andante	!	! Andante	!	! Andante	!	! Andante	!
=0-	=0-	=0-	=0-	=0-	=0-	=0-	=0-	=0-	=0-	=0-	=0-	=0-	=0-	=0-	=0-
4dd\	Drauf	4g/	Drauf	4B-\	Drauf	4G\	Drauf	4dd\	Drauf	4g/	Drauf	4B-\	Drauf	4G\	Drauf
4ee-\	schliess'	4g/	schliess'	4B-\	schliess'	4C/	schliess'	4ee-\	schliess'	4g/	schliess'	4B-\	schliess'	4C/	schliess'
8dd\L	ich	4f/	ich	4A/	ich	4F\	ich	8dd\L	ich	4f/	ich	4A/	ich	4F\	ich
8cc\J	.	.	.	.	.	.	.	8cc\J	.	.	.	.	.	.	.
=169	=169	=169	=169	=169	=169	=169	=169	=169	=169	=169	=169	=169	=169	=169	=169
(4dd\	mich	(4f/	mich	(4B-\	mich	(4BB-/	mich	(4dd\	mich	(4f/	mich	(4B-\	mich	(4BB-/	mich
4g/)	.	4e/)	.	8c\L	.	4B-\)	.	4g/)	.	4e/)	.	8c\L	.	4B-\)	.
.	.	.	.	8d\J)	.	.	.	.	.	.	.	8d\J)	.	.	.
[4cc\	in	8f#/L	in	4e-\	in	8A\L	in	[4cc\	in	8f#/L	in	4e-\	in	8A\L	in
.	.	8g/J	.	.	.	8G\J	.	.	.	8g/J	.	.	.	8G\J	.
=170	=170	=170	=170	=170	=170	=170	=170	=170	=170	=170	=170	=170	=170	=170	=170
4cc\]	.	(4a/	dei-	(4.d\	dei-	(4F#\	dei-	4cc\]	.	(4a/	dei-	(4.d\	dei-	(4F#\	dei-
(8b-/L	dei-	8g/L	.	.	.	4G\)	.	(8b-/L	dei-	8g/L	.	.	.	4G\)	.
8a/J)	.	8f#/J)	.	8c\)	.	.	.	8a/J)	.	8f#/J)	.	8c\)	.	.	.
(8b-\L	-ne	8g/L	-ne	8d\L	-ne	4C/	-ne	(8b-\L	-ne	8g/L	-ne	8d\L	-ne	4C/	-ne
8cc\J)	.	8a/J	.	8e-\J	.	.	.	8cc\J)	.	8a/J	.	8e-\J	.	.	.
=171	=171	=171	=171	=171	=171	=171	=171	=171	=171	=171	=171	=171	=171	=171	=171
2aT/	H\3an-	2f#/	H\3an-	(4d\	H\3an-	2D\	H\3an-	2aT/	H\3an-	2f#/	H\3an-	(4d\	H\3an-	2D\	H\3an-
.	.	.	.	4c\)	.	.	.	.	.	.	.	4c\)	.	.	.
4g;/	-de	4d;/	-de	4B-;\	-de	4GG;/	-de	4g;/	-de	4d;/	-de	4B-;\	-de	4GG;/	-de
=172	=172	=172	=172	=172	=172	=172	=172	=172	=172	=172	=172	=172	=172	=172	=172
4dd\	und	4g/	und	4B-\	und	4G\	und	4dd\	und	4g/	und	4B-\	und	4G\	und
8ee-\L	sa-	4b-\	sa-	8c\L	sa-	8G\L	sa-	8ee-\L	sa-	4b-\	sa-	8c\L	sa-	8G\L	sa-
8ff\J	.	.	.	8d\J	.	8F\J	.	8ff\J	.	.	.	8d\J	.	8F\J	.
4gg\	-ge,	4b-\	-ge,	4e-\	-ge,	4E-\	-ge,	4gg\	-ge,	4b-\	-ge,	4e-\	-ge,	4E-\	-ge,
=173	=173	=173	=173	=173	=173	=173	=173	=173	=173	=173	=173	=173	=173	=173	=173
(4a/	Welt,	2f/	Welt,	(4e-\	Welt,	(4.F\	Welt,	(4a/	Welt,	2f/	Welt,	(4e-\	Welt,	(4.F\	Welt,
8g/L	.	.	.	4d\)	.	.	.	8g/L	.	.	.	4d\)	.	.	.
8f/J)	.	.	.	.	.	8E-\)	.	8f/J)	.	.	.	.	.	8E-\)	.
4ff\	zu	4a/	zu	4c\	zu	8E-\L	zu	4ff\	zu	4a/	zu	4c\	zu	8E-\L	zu
.	.	.	.	.	.	8D\J	.	.	.	.	.	.	.	8D\J	.
=174	=174	=174	=174	=174	=174	=174	=174	=174	=174	=174	=174	=174	=174	=174	=174
(8ff\L	gu-	(8b-/L	gu-	(4d\	gu-	8D\L	gu-	(8ff\L	gu-	(8b-/L	gu-	(4d\	gu-	8D\L	gu-
8gg\J	.	8g/J	.	.	.	8E-\J	.	8gg\J	.	8g/J	.	.	.	8E-\J	.
4.ee-\)	.	4.a/)	.	4c\)	.	2F\	-ter	4.ee-\)	.	4.a/)	.	4c\)	.	2F\	-ter
.	.	.	.	4f\	-ter	.	.	.	.	.	.	4f\	-ter	.	.
8dd\	-ter	8b-\	-ter	.	.	.	.	8dd\	-ter	8b-\	-ter	.	.	.	.
=175	=175	=175	=175	=175	=175	=175	=175	=175	=175	=175	=175	=175	=175	=175	=175
2.dd;\	Nacht!	2.b-;\	Nacht!	2.f;\	Nacht!	2.BB-;/	Nacht!	2.dd;\	Nacht!	2.b-;\	Nacht!	2.f;\	Nacht!	2.BB-;/	Nacht!
=176	=176	=176	=176	=176	=176	=176	=176	=176	=176	=176	=176	=176	=176	=176	=176
4dd\	eilt	4f/	eilt	4B-\	eilt	4B-\	eilt	4dd\	eilt	4f/	eilt	4B-\	eilt	4B-\	eilt
8ee-\L	gleich	4f/	gleich	4c\	gleich	4A\	gleich	8ee-\L	gleich	4f/	gleich	4c\	gleich	4A\	gleich
8dd\J	.	.	.	.	.	.	.	8dd\J	.	.	.	.	.	.	.
8cc\L	mein	4g/	mein	8e\L	mein	4G\	mein	8cc\L	mein	4g/	mein	8e\L	mein	4G\	mein
8b-\J	.	.	.	8d\J	.	.	.	8b-\J	.	.	.	8d\J	.	.	.
=177	=177	=177	=177	=177	=177	=177	=177	=177	=177	=177	=177	=177	=177	=177	=177
(4cc\	Le-	(4g/	Le-	(4c\	Le-	(4A\	Le-	(4cc\	Le-	(4g/	Le-	(4c\	Le-	(4A\	Le-
4f/)	.	4f/)	.	8d\L	.	8B-\L	.	4f/)	.	4f/)	.	8d\L	.	8B-\L	.
.	.	.	.	8c\J)	.	8A\J)	.	.	.	.	.	8c\J)	.	8A\J)	.
[4b-\	-bens-	8e/L	-bens-	8B-/L	-bens-	8G\L	-bens-	[4b-\	-bens-	8e/L	-bens-	8B-/L	-bens-	8G\L	-bens-
.	.	8d/J	.	8A/J	.	8F\J	.	.	.	8d/J	.	8A/J	.	8F\J	.
=178	=178	=178	=178	=178	=178	=178	=178	=178	=178	=178	=178	=178	=178	=178	=178
4b-\]	.	(4.c/	-lauf	(4G/	-lauf	(4E\	-lauf	4b-\]	.	(4.c/	-lauf	(4G/	-lauf	(4E\	-lauf
8a\L	-lauf	.	.	4A/)	.	4F\)	.	8a\L	-lauf	.	.	4A/)	.	4F\)	.
8dd\	.	8e/)	.	.	.	.	.	8dd\	.	8e/)	.	.	.	.	.
8cc\J	.	4f/	zu	4d\	zu	4BB-/	zu	8cc\J	.	4f/	zu	4d\	zu	4BB-/	zu
8b-\	zu	.	.	.	.	.	.	8b-\	zu	.	.	.	.	.	.
=179	=179	=179	=179	=179	=179	=179	=179	=179	=179	=179	=179	=179	=179	=179	=179
(4a/	En-	(4f/	En-	(4c\	En-	2C/	En-	(4a/	En-	(4f/	En-	(4c\	En-	2C/	En-
4g/)	.	4e/)	.	4B-\)	.	.	.	4g/)	.	4e/)	.	4B-\)	.	.	.
4f;/	-de,	4c;/	-de,	4A;/	-de,	4FF;/	-de,	4f;/	-de,	4c;/	-de,	4A;/	-de,	4FF;/	-de,
=180	=180	=180	=180	=180	=180	=180	=180	=180	=180	=180	=180	=180	=180	=180	=180
4ff\	ist	4d/	ist	4a\	ist	4D\	ist	4ff\	ist	4d/	ist	4a\	ist	4D\	ist
4ee\	doch	4b-\	doch	4g\	doch	4G\	doch	4ee\	doch	4b-\	doch	4g\	doch	4G\	doch
4dd\	der	4a/	der	4f\	der	4A\	der	4dd\	der	4a/	der	4f\	der	4A\	der
=181	=181	=181	=181	=181	=181	=181	=181	=181	=181	=181	=181	=181	=181	=181	=181
(4gg\	Geist	4.g/	Geist	(8e\L	Geist	(4B-\	Geist	(4gg\	Geist	4.g/	Geist	(8e\L	Geist	(4B-\	Geist
.	.	.	.	8d\J	.	.	.	.	.	.	.	8d\J	.	.	.
4a/)	.	.	.	4e\)	.	4C#/)	.	4a/)	.	.	.	4e\)	.	4C#/)	.
.	.	(8e/L	wohl	.	.	.	.	.	.	(8e/L	wohl	.	.	.	.
[4ff\	wohl	8f/	.	[4d\	wohl	4D\	wohl	[4ff\	wohl	8f/	.	[4d\	wohl	4D\	wohl
.	.	8g/J)	.	.	.	.	.	.	.	8g/J)	.	.	.	.	.
=182	=182	=182	=182	=182	=182	=182	=182	=182	=182	=182	=182	=182	=182	=182	=182
8ff\L]	.	(8a/L	an-	(8d\L]	.	(4G\	an-	8ff\L]	.	(8a/L	an-	(8d\L]	.	(4G\	an-
8ee\J	.	8b-/J	.	8g\J)	.	.	.	8ee\J	.	8b-/J	.	8g\J)	.	.	.
4.cc#\	an-	4a/)	.	4e\	an-	4A\)	.	4.cc#\	an-	4a/)	.	4e\	an-	4A\)	.
.	.	4a/	-ge-	4e\	-ge-	4AA/	-ge-	.	.	4a/	-ge-	4e\	-ge-	4AA/	-ge-
8dd\	-ge-	.	.	.	.	.	.	8dd\	-ge-	.	.	.	.	.	.
=183	=183	=183	=183	=183	=183	=183	=183	=183	=183	=183	=183	=183	=183	=183	=183
2.dd;\	-bracht.	2.a;/	-bracht.	2.f#;\	-bracht.	2.D;\	-bracht.	2.dd;\	-bracht.	2.a;/	-bracht.	2.f#;\	-bracht.	2.D;\	-bracht.
=184	=184	=184	=184	=184	=184	=184	=184	=184	=184	=184	=184	=184	=184	=184	=184
4ff\	Er	4a/	Er	4d\	Er	8D\L	Er	4ff\	Er	4a/	Er	4d\	Er	8D\L	Er
.	.	.	.	.	.	8E-\J	.	.	.	.	.	.	.	8E-\J	.
4dd\	soll	4f/	soll	8A/L	soll	8F\L	soll	4dd\	soll	4f/	soll	8A/L	soll	8F\L	soll
.	.	.	.	8B/J	.	8G\J	.	.	.	.	.	8B/J	.	8G\J	.
4cc\	bei	4f/	bei	4c\	bei	4A-\	bei	4cc\	bei	4f/	bei	4c\	bei	4A-\	bei
=185	=185	=185	=185	=185	=185	=185	=185	=185	=185	=185	=185	=185	=185	=185	=185
2b\	sei-	2g/	sei-	(8d\L	sei-	2G\	sei-	2b\	sei-	2g/	sei-	(8d\L	sei-	2G\	sei-
.	.	.	.	8e-\J	.	.	.	.	.	.	.	8e-\J	.	.	.
.	.	.	.	4f\)	.	.	.	.	.	.	.	4f\)	.	.	.
4cc\	-nem	4c/	-nem	4e-\	-nem	4A\	-nem	4cc\	-nem	4c/	-nem	4e-\	-nem	4A\	-nem
=186	=186	=186	=186	=186	=186	=186	=186	=186	=186	=186	=186	=186	=186	=186	=186
(8ff\L	Sch\3o-	(8a-/L	Sch\3o-	(8d\L	Sch\3o-	(4B\	Sch\3o-	(8ff\L	Sch\3o-	(8a-/L	Sch\3o-	(8d\L	Sch\3o-	(4B\	Sch\3o-
16gg\L	.	16g/L	.	16e-\L	.	.	.	16gg\L	.	16g/L	.	16e-\L	.	.	.
16aa-\JJ	.	16f/JJ	.	16f\JJ	.	.	.	16aa-\JJ	.	16f/JJ	.	16f\JJ	.	.	.
4gg\)	.	4cc\)	.	4e-\)	.	4c\)	.	4gg\)	.	4cc\)	.	4e-\)	.	4c\)	.
4ff\	-pfer	4a-/	-pfer	4c\	-pfer	4F\	-pfer	4ff\	-pfer	4a-/	-pfer	4c\	-pfer	4F\	-pfer
=187	=187	=187	=187	=187	=187	=187	=187	=187	=187	=187	=187	=187	=187	=187	=187
(4ee-\	schwe-	(4.g/	schwe-	(4c\	schwe-	2G\	schwe-	(4ee-\	schwe-	(4.g/	schwe-	(4c\	schwe-	2G\	schwe-
4dd\)	.	.	.	4B\)	.	.	.	4dd\)	.	.	.	4B\)	.	.	.
.	.	8f/)	.	.	.	.	.	.	.	8f/)	.	.	.	.	.
4cc;\	-ben,	4e-;/	-ben,	4G;/	-ben,	4C;/	-ben,	4cc;\	-ben,	4e-;/	-ben,	4G;/	-ben,	4C;/	-ben,
=188	=188	=188	=188	=188	=188	=188	=188	=188	=188	=188	=188	=188	=188	=188	=188
4ee-\	weil	4g/	weil	8c\L	weil	4C/	weil	4ee-\	weil	4g/	weil	8c\L	weil	4C/	weil
.	.	.	.	8B\J	.	.	.	.	.	.	.	8B\J	.	.	.
8ff\L	Je-	8g/L	Je-	8c\L	Je-	[2c\	Je-	8ff\L	Je-	8g/L	Je-	8c\L	Je-	[2c\	Je-
8ee-\J	.	8b-/J	.	8d\J	.	.	.	8ee-\J	.	8b-/J	.	8d\J	.	.	.
8dd\L	-sus	8a/L	-sus	4e-\	-sus	.	.	8dd\L	-sus	8a/L	-sus	4e-\	-sus	.	.
8cc\J	.	8g/J	.	.	.	.	.	8cc\J	.	8g/J	.	.	.	.	.
=189	=189	=189	=189	=189	=189	=189	=189	=189	=189	=189	=189	=189	=189	=189	=189
(4ff#\	ist	4a/	ist	2d\	ist	8c\]	.	(4ff#\	ist	4a/	ist	2d\	ist	8c\]	.
.	.	.	.	.	.	8c\	-sus	.	.	.	.	.	.	8c\	-sus
4gg\)	.	2d/	und	.	.	8B-\L	ist	4gg\)	.	2d/	und	.	.	8B-\L	ist
.	.	.	.	.	.	8A\J	.	.	.	.	.	.	.	8A\J	.
4g/	und	.	.	4B-\	und	8G\L	und	4g/	und	.	.	4B-\	und	8G\L	und
.	.	.	.	.	.	8F\J	.	.	.	.	.	.	.	8F\J	.
=190	=190	=190	=190	=190	=190	=190	=190	=190	=190	=190	=190	=190	=190	=190	=190
[2.cc\	bleibt	2.g/	bleibt	2.e-\	bleibt	8E-\L	bleibt	[2.cc\	bleibt	2.g/	bleibt	2.e-\	bleibt	8E-\L	bleibt
.	.	.	.	.	.	8D\	.	.	.	.	.	.	.	8D\	.
.	.	.	.	.	.	8F\	.	.	.	.	.	.	.	8F\	.
.	.	.	.	.	.	8E-\J	.	.	.	.	.	.	.	8E-\J	.
.	.	.	.	.	.	8D/L	der	.	.	.	.	.	.	8D/L	der
.	.	.	.	.	.	8C/J	.	.	.	.	.	.	.	8C/J	.
=191	=191	=191	=191	=191	=191	=191	=191	=191	=191	=191	=191	=191	=191	=191	=191
8cc\]	.	4a/	der	4e-\	der	4F#\	wah-	8cc\]	.	4a/	der	4e-\	der	4F#\	wah-
8ee-\	der	.	.	.	.	.	.	8ee-\	der	.	.	.	.	.	.
8dd\L	wah-	8b-/L	wah-	8F#/L	wah-	2D\	-re	8dd\L	wah-	8b-/L	wah-	8F#/L	wah-	2D\	-re
8cc\J	.	8a/J	.	8A/J	.	.	.	8cc\J	.	8a/J	.	8A/J	.	.	.
8b-/L	-re	8g/L	-re	4d\	-re	.	.	8b-/L	-re	8g/L	-re	4d\	-re	.	.
8a/J	.	8f#/J	.	.	.	.	.	8a/J	.	8f#/J	.	.	.	.	.
=192	=192	=192	=192	=192	=192	=192	=192	=192	=192	=192	=192	=192	=192	=192	=192
8b-\L	Weg	2g/	Weg	2d\	Weg	4.G\	Weg	8b-\L	Weg	2g/	Weg	2d\	Weg	4.G\	Weg
8g\	.	.	.	.	.	.	.	8g\	.	.	.	.	.	.	.
8a\	.	.	.	.	.	.	.	8a\	.	.	.	.	.	.	.
8b\	.	.	.	.	.	8F\L	.	8b\	.	.	.	.	.	8F\L	.
8cc\	.	8a/L	.	8e-\L	.	8E-\	.	8cc\	.	8a/L	.	8e-\L	.	8E-\	.
8dd\J	.	8b/J	.	8f\J	.	8D\J	.	8dd\J	.	8b/J	.	8f\J	.	8D\J	.
=193	=193	=193	=193	=193	=193	=193	=193	=193	=193	=193	=193	=193	=193	=193	=193
8ee-\L	.	8cc/L	.	8g\L	.	4.C/	.	8ee-\L	.	8cc/L	.	8g\L	.	4.C/	.
8cc\	.	8b-/	.	8f\	.	.	.	8cc\	.	8b-/	.	8f\	.	.	.
8ff#\	.	8a/	.	8e-\	.	.	.	8ff#\	.	8a/	.	8e-\	.	.	.
16gg\L	.	8g/J	.	8d\J	.	8BB-/L	.	16gg\L	.	8g/J	.	8d\J	.	8BB-/L	.
16aa\JJ	.	.	.	.	.	.	.	16aa\JJ	.	.	.	.	.	.	.
[4dd\	.	4f#/	.	4a\	.	8C/	.	[4dd\	.	4f#/	.	4a\	.	8C/	.
.	.	.	.	.	.	8AA/J	.	.	.	.	.	.	.	8AA/J	.
=194	=194	=194	=194	=194	=194	=194	=194	=194	=194	=194	=194	=194	=194	=194	=194
8dd\]	.	4g/	zum	4d\	zum	8BB-/	.	8dd\]	.	4g/	zum	4d\	zum	8BB-/	.
8ee-\	zum	.	.	.	.	8C/	zum	8ee-\	zum	.	.	.	.	8C/	zum
(4.a/	Le-	(4g/	Le-	(8d\L	Le-	2D\	Le-	(4.a/	Le-	(4g/	Le-	(8d\L	Le-	2D\	Le-
.	.	.	.	8B-\J	.	.	.	.	.	.	.	8B-\J	.	.	.
.	.	4f#/)	.	4c\)	.	.	.	.	.	4f#/)	.	4c\)	.	.	.
8g/)	.	.	.	.	.	.	.	8g/)	.	.	.	.	.	.	.
=195	=195	=195	=195	=195	=195	=195	=195	=195	=195	=195	=195	=195	=195	=195	=195
2.g;/	-ben.	2.d;/	-ben.	2.B;\	-ben.	2.GG;/	-ben.	2.g;/	-ben.	2.d;/	-ben.	2.B;\	-ben.	2.GG;/	-ben.
==|!	==|!	==|!	==|!	==|!	==|!	==|!	==|!	==|!	==|!	==|!	==|!	==|!	==|!	==|!	==|!
*-	*-	*-	*-	*-	*-	*-	*-	*-	*-	*-	*-	*-	*-	*-	*-
!!!RWG: Key is interpreted using the Humdrum key tool.
!!!AFT: stage2
!!!END: 1990/03/15/
!!format changes:
!!content changes:
!!public access: complete
!!!KEY: 1542685682
!!!EMD: Converted from MuseData to Humdrum Dec 19, 2000, by Andreas Kornstaedt using muse2kern.
